X: 7294
T: Clear Skye, The
R: jig
M: 6/8
K: Bminor
A|:BdB BAF|Bde f2a|BdB BAF|fed B2A|
BdB BAF|Bde f2a|baf e2f|dBA B3:|
|:a2a afe|faf edB|b2b baf|aba f2 f/e/|
d2B BAF|ABd e2f|afe f2a|dBA B3:|

